; generated by Slic3r 1.3.1-dev (Build 18ddd3a36dc69d81fb9b7440498bff9e1dde8b7e) on 2021-05-12 at 01:39:29

; external perimeters extrusion width = 0.33mm (1.79mm^3/s)
; perimeters extrusion width = 0.42mm (2.33mm^3/s)
; infill extrusion width = 0.38mm (2.06mm^3/s)
; solid infill extrusion width = 0.42mm (0.93mm^3/s)
; top infill extrusion width = 0.42mm (0.37mm^3/s)
; support material extrusion width = 0.33mm (1.79mm^3/s)

M107
G92 E0
M190 S80 ; set bed temperature and wait for it to be reached
M104 S230 ; set temperature
G28 ; home all axes
G1 Z5 F5000 ; lift nozzle

; Filament gcode

M109 S230 ; set temperature and wait for it to be reached
G21 ; set units to millimeters
G90 ; use absolute coordinates
M82 ; use absolute distances for extrusion
G92 E0
G1 E-1.50000 F18000.00000
G92 E0
G1 Z0.200 F4200.000
G1 X-11.626 Y19.111 F4200.000
G1 E1.50000 F18000.00000
G1 F1200.000
G1 X-11.563 Y-60.044 E2.46150
G1 X-11.490 Y-60.946 E2.47248
G1 X-11.074 Y-63.496 E2.50387
G1 X-10.825 Y-64.467 E2.51605
G1 X-10.000 Y-66.792 E2.54601
G1 X-9.806 Y-67.267 E2.55225
G1 X2.079 Y-92.940 E2.89590
G1 X2.701 Y-94.112 E2.91201
G1 X3.150 Y-94.807 E2.92206
G1 X3.799 Y-95.666 E2.93513
G1 X4.203 Y-96.143 E2.94273
G1 X4.615 Y-96.578 E2.95000
G1 X5.131 Y-97.059 E2.95858
G1 X6.122 Y-97.872 E2.97414
G1 X6.921 Y-98.420 E2.98591
G1 X7.987 Y-99.021 E3.00078
G1 X8.682 Y-99.351 E3.01012
G1 X9.366 Y-99.621 E3.01906
G1 X9.950 Y-99.815 E3.02654
G1 X10.687 Y-100.011 E3.03580
G1 X11.307 Y-100.136 E3.04347
G1 X12.475 Y-100.302 E3.05781
G1 X13.471 Y-100.353 E3.06992
G1 X15.121 Y-100.292 E3.08998
G1 X16.350 Y-100.110 E3.10508
G1 X17.657 Y-99.764 E3.12149
G1 X18.539 Y-99.449 E3.13288
G1 X19.437 Y-99.041 E3.14485
G1 X19.986 Y-98.754 E3.15238
G1 X20.745 Y-98.300 E3.16312
G1 X21.693 Y-97.638 E3.17716
G1 X22.440 Y-96.987 E3.18920
G1 X23.533 Y-95.851 E3.20835
G1 X24.329 Y-94.800 E3.22436
G1 X25.206 Y-93.306 E3.24541
G1 X25.631 Y-92.410 E3.25745
G1 X25.918 Y-91.636 E3.26749
G1 X26.075 Y-91.143 E3.27377
G1 X26.279 Y-90.383 E3.28332
G1 X26.439 Y-89.520 E3.29398
G1 X26.575 Y-88.234 E3.30970
G1 X26.606 Y-87.642 E3.31689
G1 X26.619 Y47.294 E4.95595
G1 X26.596 Y48.183 E4.96676
G1 X26.544 Y48.800 E4.97427
G1 X26.426 Y49.635 E4.98452
G1 X26.332 Y50.135 E4.99070
G1 X26.157 Y50.877 E4.99996
G1 X25.994 Y51.440 E5.00708
G1 X25.736 Y52.176 E5.01655
G1 X25.466 Y52.818 E5.02501
G1 X25.144 Y53.467 E5.03381
G1 X24.889 Y53.926 E5.04020
G1 X24.496 Y54.559 E5.04925
G1 X24.180 Y55.014 E5.05598
G1 X23.704 Y55.632 E5.06545
G1 X23.325 Y56.075 E5.07254
G1 X22.716 Y56.715 E5.08326
G1 X22.190 Y57.201 E5.09196
G1 X21.485 Y57.774 E5.10300
G1 X20.952 Y58.158 E5.11097
G1 X20.170 Y58.653 E5.12222
G1 X19.401 Y59.058 E5.13277
G1 X18.530 Y59.435 E5.14431
G1 X17.905 Y59.663 E5.15238
G1 X16.901 Y59.958 E5.16509
G1 X16.356 Y60.087 E5.17190
G1 X15.456 Y60.253 E5.18301
G1 X14.482 Y60.346 E5.19490
G1 X13.526 Y60.354 E5.20651
G1 X12.766 Y60.309 E5.21576
G1 X11.522 Y60.150 E5.23100
G1 X10.617 Y59.958 E5.24223
G1 X9.356 Y59.575 E5.25824
G1 X8.484 Y59.225 E5.26966
G1 X7.607 Y58.784 E5.28158
G1 X6.835 Y58.315 E5.29255
G1 X5.629 Y57.444 E5.31062
G1 X4.947 Y56.863 E5.32150
G1 X4.331 Y56.244 E5.33210
G1 X4.003 Y55.884 E5.33802
G1 X3.577 Y55.372 E5.34612
G1 X3.106 Y54.713 E5.35596
G1 X2.398 Y53.556 E5.37244
G1 X2.091 Y52.982 E5.38034
G1 X-9.734 Y27.412 E5.72254
G1 X-9.916 Y26.969 E5.72836
G1 X-10.794 Y24.543 E5.75970
G1 X-10.998 Y23.840 E5.76858
G1 X-11.277 Y22.574 E5.78434
G1 X-11.382 Y21.907 E5.79254
G1 X-11.600 Y19.659 E5.81997
G1 X-11.624 Y19.156 E5.82608
G1 X-11.469 Y19.112 F4200.000
G1 F1200.000
G1 X-11.406 Y-60.044 E6.78758
G1 X-11.335 Y-60.920 E6.79826
G1 X-10.919 Y-63.471 E6.82965
G1 X-10.677 Y-64.414 E6.84148
G1 X-9.852 Y-66.739 E6.87144
G1 X-9.663 Y-67.201 E6.87751
G1 X2.222 Y-92.874 E7.22115
G1 X2.839 Y-94.037 E7.23714
G1 X3.275 Y-94.712 E7.24691
G1 X3.924 Y-95.571 E7.25999
G1 X4.317 Y-96.035 E7.26737
G1 X4.729 Y-96.470 E7.27464
G1 X5.231 Y-96.938 E7.28298
G1 X6.221 Y-97.750 E7.29854
G1 X6.998 Y-98.283 E7.30999
G1 X8.064 Y-98.884 E7.32485
G1 X8.739 Y-99.205 E7.33393
G1 X9.424 Y-99.475 E7.34287
G1 X9.991 Y-99.664 E7.35013
G1 X10.727 Y-99.859 E7.35938
G1 X11.329 Y-99.980 E7.36684
G1 X12.497 Y-100.146 E7.38117
G1 X13.465 Y-100.196 E7.39294
G1 X15.115 Y-100.135 E7.41300
G1 X16.310 Y-99.958 E7.42768
G1 X17.617 Y-99.612 E7.44409
G1 X18.475 Y-99.306 E7.45516
G1 X19.372 Y-98.898 E7.46713
G1 X19.906 Y-98.619 E7.47444
G1 X20.664 Y-98.165 E7.48518
G1 X21.601 Y-97.511 E7.49906
G1 X22.327 Y-96.878 E7.51076
G1 X23.420 Y-95.742 E7.52991
G1 X24.193 Y-94.721 E7.54547
G1 X25.071 Y-93.226 E7.56652
G1 X25.484 Y-92.356 E7.57822
G1 X25.771 Y-91.581 E7.58826
G1 X25.924 Y-91.102 E7.59437
G1 X26.127 Y-90.343 E7.60392
G1 X26.283 Y-89.504 E7.61428
G1 X26.419 Y-88.217 E7.63000
G1 X26.449 Y-87.642 E7.63699
G1 X26.462 Y47.294 E9.27605
G1 X26.439 Y48.178 E9.28680
G1 X26.388 Y48.778 E9.29411
G1 X26.271 Y49.613 E9.30435
G1 X26.179 Y50.099 E9.31035
G1 X26.005 Y50.841 E9.31962
G1 X25.845 Y51.388 E9.32654
G1 X25.588 Y52.124 E9.33601
G1 X25.326 Y52.748 E9.34423
G1 X25.004 Y53.397 E9.35303
G1 X24.755 Y53.844 E9.35924
G1 X24.363 Y54.476 E9.36828
G1 X24.055 Y54.919 E9.37483
G1 X23.579 Y55.536 E9.38430
G1 X23.211 Y55.967 E9.39118
G1 X22.602 Y56.607 E9.40191
G1 X22.091 Y57.079 E9.41037
G1 X21.386 Y57.652 E9.42140
G1 X20.868 Y58.025 E9.42915
G1 X20.086 Y58.520 E9.44039
G1 X19.339 Y58.914 E9.45065
G1 X18.467 Y59.291 E9.46219
G1 X17.860 Y59.512 E9.47004
G1 X16.858 Y59.807 E9.48273
G1 X16.327 Y59.932 E9.48935
G1 X15.427 Y60.098 E9.50046
G1 X14.481 Y60.189 E9.51202
G1 X13.525 Y60.197 E9.52363
G1 X12.786 Y60.153 E9.53262
G1 X11.542 Y59.994 E9.54786
G1 X10.662 Y59.808 E9.55877
G1 X9.402 Y59.425 E9.57477
G1 X8.554 Y59.084 E9.58587
G1 X7.677 Y58.644 E9.59780
G1 X6.927 Y58.188 E9.60845
G1 X5.721 Y57.316 E9.62653
G1 X5.058 Y56.751 E9.63711
G1 X4.443 Y56.134 E9.64770
G1 X4.124 Y55.784 E9.65345
G1 X3.697 Y55.271 E9.66155
G1 X3.240 Y54.631 E9.67111
G1 X2.532 Y53.474 E9.68759
G1 X2.234 Y52.916 E9.69527
G1 X-9.591 Y27.346 E10.03747
G1 X-9.769 Y26.915 E10.04314
G1 X-10.647 Y24.489 E10.07447
G1 X-10.844 Y23.807 E10.08310
G1 X-11.123 Y22.540 E10.09886
G1 X-11.226 Y21.892 E10.10683
G1 X-11.444 Y19.644 E10.13426
G1 X-11.467 Y19.156 E10.14019
G1 X-11.312 Y19.112 F4200.000
G1 F1200.000
G1 X-11.249 Y-60.044 E11.10169
G1 X-11.180 Y-60.895 E11.11206
G1 X-10.764 Y-63.445 E11.14345
G1 X-10.529 Y-64.362 E11.15494
G1 X-9.704 Y-66.686 E11.18490
G1 X-9.521 Y-67.135 E11.19079
G1 X2.364 Y-92.808 E11.53444
G1 X2.977 Y-93.961 E11.55029
G1 X3.401 Y-94.618 E11.55979
G1 X4.049 Y-95.476 E11.57286
G1 X4.431 Y-95.927 E11.58003
G1 X4.843 Y-96.362 E11.58731
G1 X5.331 Y-96.816 E11.59540
G1 X6.321 Y-97.629 E11.61097
G1 X7.076 Y-98.146 E11.62208
G1 X8.141 Y-98.747 E11.63694
G1 X8.797 Y-99.059 E11.64576
G1 X9.481 Y-99.329 E11.65470
G1 X10.033 Y-99.512 E11.66175
G1 X10.766 Y-99.707 E11.67097
G1 X11.351 Y-99.825 E11.67822
G1 X12.519 Y-99.991 E11.69255
G1 X13.459 Y-100.039 E11.70398
G1 X15.109 Y-99.978 E11.72404
G1 X16.270 Y-99.806 E11.73830
G1 X17.576 Y-99.460 E11.75471
G1 X18.410 Y-99.162 E11.76546
G1 X19.307 Y-98.755 E11.77743
G1 X19.826 Y-98.484 E11.78454
G1 X20.583 Y-98.031 E11.79526
G1 X21.509 Y-97.384 E11.80897
G1 X22.214 Y-96.769 E11.82034
G1 X23.306 Y-95.633 E11.83949
G1 X24.058 Y-94.641 E11.85460
G1 X24.935 Y-93.147 E11.87565
G1 X25.337 Y-92.301 E11.88702
G1 X25.623 Y-91.527 E11.89706
G1 X25.772 Y-91.061 E11.90299
G1 X25.975 Y-90.302 E11.91254
G1 X26.127 Y-89.487 E11.92260
G1 X26.263 Y-88.201 E11.93832
G1 X26.292 Y-87.642 E11.94511
G1 X26.305 Y47.294 E13.58417
G1 X26.282 Y48.174 E13.59486
G1 X26.233 Y48.756 E13.60196
G1 X26.115 Y49.591 E13.61220
G1 X26.027 Y50.063 E13.61803
G1 X25.852 Y50.805 E13.62730
G1 X25.697 Y51.337 E13.63402
G1 X25.440 Y52.072 E13.64349
G1 X25.185 Y52.678 E13.65147
G1 X24.863 Y53.327 E13.66027
G1 X24.622 Y53.761 E13.66630
G1 X24.229 Y54.393 E13.67534
G1 X23.931 Y54.823 E13.68170
G1 X23.455 Y55.441 E13.69117
G1 X23.097 Y55.859 E13.69786
G1 X22.488 Y56.498 E13.70858
G1 X21.992 Y56.958 E13.71679
G1 X21.287 Y57.530 E13.72782
G1 X20.784 Y57.893 E13.73536
G1 X20.002 Y58.387 E13.74659
G1 X19.277 Y58.770 E13.75656
G1 X18.405 Y59.147 E13.76809
G1 X17.815 Y59.362 E13.77572
G1 X16.814 Y59.656 E13.78839
G1 X16.299 Y59.778 E13.79483
G1 X15.399 Y59.944 E13.80594
G1 X14.479 Y60.032 E13.81716
G1 X13.524 Y60.040 E13.82877
G1 X12.806 Y59.997 E13.83750
G1 X11.562 Y59.838 E13.85274
G1 X10.708 Y59.657 E13.86334
G1 X9.449 Y59.275 E13.87933
G1 X8.625 Y58.944 E13.89011
G1 X7.748 Y58.503 E13.90204
G1 X7.019 Y58.061 E13.91239
G1 X5.813 Y57.189 E13.93046
G1 X5.169 Y56.640 E13.94074
G1 X4.554 Y56.023 E13.95132
G1 X4.244 Y55.683 E13.95691
G1 X3.818 Y55.171 E13.96500
G1 X3.374 Y54.549 E13.97429
G1 X2.666 Y53.392 E13.99077
G1 X2.376 Y52.850 E13.99823
G1 X-9.449 Y27.280 E14.34043
G1 X-9.621 Y26.861 E14.34593
G1 X-10.499 Y24.436 E14.37726
G1 X-10.691 Y23.773 E14.38565
G1 X-10.970 Y22.506 E14.40140
G1 X-11.069 Y21.877 E14.40914
G1 X-11.287 Y19.629 E14.43657
G1 X-11.310 Y19.157 E14.44232
G1 X-11.155 Y19.112 F4200.000
G1 F1200.000
G1 X-11.092 Y-60.044 E15.40382
G1 X-11.025 Y-60.870 E15.41388
G1 X-10.609 Y-63.420 E15.44527
G1 X-10.381 Y-64.310 E15.45643
G1 X-9.556 Y-66.633 E15.48638
G1 X-9.378 Y-67.069 E15.49210
G1 X2.507 Y-92.742 E15.83574
G1 X3.115 Y-93.886 E15.85147
G1 X3.526 Y-94.523 E15.86068
G1 X4.175 Y-95.382 E15.87376
G1 X4.545 Y-95.819 E15.88072
G1 X4.957 Y-96.254 E15.88799
G1 X5.430 Y-96.695 E15.89585
G1 X6.421 Y-97.507 E15.91141
G1 X7.153 Y-98.009 E15.92220
G1 X8.218 Y-98.610 E15.93705
G1 X8.854 Y-98.913 E15.94561
G1 X9.539 Y-99.183 E15.95455
G1 X10.074 Y-99.361 E15.96140
G1 X10.806 Y-99.555 E15.97059
G1 X11.373 Y-99.669 E15.97763
G1 X12.541 Y-99.835 E15.99195
G1 X13.453 Y-99.882 E16.00305
G1 X15.104 Y-99.821 E16.02311
G1 X16.230 Y-99.654 E16.03694
G1 X17.536 Y-99.308 E16.05335
G1 X18.345 Y-99.019 E16.06378
G1 X19.242 Y-98.612 E16.07576
G1 X19.745 Y-98.349 E16.08265
G1 X20.502 Y-97.896 E16.09336
G1 X21.416 Y-97.257 E16.10691
G1 X22.101 Y-96.661 E16.11794
G1 X23.193 Y-95.524 E16.13709
G1 X23.922 Y-94.562 E16.15176
G1 X24.800 Y-93.067 E16.17281
G1 X25.189 Y-92.247 E16.18384
G1 X25.476 Y-91.472 E16.19387
G1 X25.620 Y-91.020 E16.19963
G1 X25.824 Y-90.261 E16.20918
G1 X25.970 Y-89.471 E16.21895
G1 X26.106 Y-88.184 E16.23466
G1 X26.135 Y-87.642 E16.24125
G1 X26.148 Y47.294 E17.88031
G1 X26.125 Y48.169 E17.89095
G1 X26.077 Y48.734 E17.89784
G1 X25.960 Y49.569 E17.90807
G1 X25.874 Y50.027 E17.91373
G1 X25.699 Y50.769 E17.92300
G1 X25.549 Y51.285 E17.92952
G1 X25.292 Y52.020 E17.93899
G1 X25.044 Y52.608 E17.94674
G1 X24.722 Y53.257 E17.95553
G1 X24.488 Y53.678 E17.96139
G1 X24.096 Y54.310 E17.97041
G1 X23.806 Y54.727 E17.97659
G1 X23.330 Y55.345 E17.98606
G1 X22.983 Y55.751 E17.99255
G1 X22.375 Y56.390 E18.00327
G1 X21.893 Y56.836 E18.01124
G1 X21.188 Y57.408 E18.02227
G1 X20.700 Y57.760 E18.02958
G1 X19.918 Y58.254 E18.04081
G1 X19.214 Y58.626 E18.05048
G1 X18.343 Y59.003 E18.06202
G1 X17.770 Y59.211 E18.06942
G1 X16.770 Y59.505 E18.08208
G1 X16.270 Y59.623 E18.08832
G1 X15.370 Y59.789 E18.09943
G1 X14.478 Y59.875 E18.11032
G1 X13.522 Y59.883 E18.12193
G1 X12.826 Y59.841 E18.13040
G1 X11.581 Y59.683 E18.14564
G1 X10.753 Y59.507 E18.15594
G1 X9.495 Y59.124 E18.17191
G1 X8.695 Y58.803 E18.18237
G1 X7.818 Y58.363 E18.19429
G1 X7.111 Y57.934 E18.20434
G1 X5.905 Y57.062 E18.22241
G1 X5.280 Y56.529 E18.23239
G1 X4.666 Y55.912 E18.24297
G1 X4.365 Y55.582 E18.24839
G1 X3.939 Y55.071 E18.25647
G1 X3.508 Y54.467 E18.26548
G1 X2.800 Y53.310 E18.28197
G1 X2.519 Y52.784 E18.28920
G1 X-9.306 Y27.214 E18.63141
G1 X-9.473 Y26.808 E18.63674
G1 X-10.351 Y24.382 E18.66808
G1 X-10.537 Y23.739 E18.67621
G1 X-10.816 Y22.473 E18.69197
G1 X-10.913 Y21.861 E18.69948
G1 X-11.131 Y19.614 E18.72691
G1 X-11.153 Y19.157 E18.73247
G1 E17.23247 F18000.00000
G92 E0
G1 X13.331 Y45.506 F4200.000
G1 E1.50000 F18000.00000
G1 F1200.000
G1 X13.731 Y45.466 E1.50488
G1 X14.131 Y45.506 E1.50975
G1 X14.515 Y45.622 E1.51463
G1 X14.873 Y45.811 E1.51955
G1 X15.185 Y46.068 E1.52446
G1 X15.435 Y46.380 E1.52931
G1 X15.624 Y46.736 E1.53421
G1 X15.746 Y47.117 E1.53907
G1 X15.779 Y47.521 E1.54399
G1 X15.746 Y47.921 E1.54886
G1 X15.624 Y48.302 E1.55373
G1 X15.435 Y48.658 E1.55862
G1 X15.185 Y48.970 E1.56348
G1 X14.873 Y49.227 E1.56838
G1 X14.515 Y49.416 E1.57330
G1 X14.131 Y49.532 E1.57818
G1 X13.731 Y49.572 E1.58305
G1 X13.331 Y49.532 E1.58793
G1 X12.947 Y49.416 E1.59281
G1 X12.593 Y49.226 E1.59769
G1 X12.282 Y48.970 E1.60258
G1 X12.025 Y48.659 E1.60748
G1 X11.836 Y48.301 E1.61240
G1 X11.720 Y47.921 E1.61723
G1 X11.681 Y47.521 E1.62211
G1 X11.720 Y47.117 E1.62703
G1 X11.836 Y46.737 E1.63187
G1 X12.025 Y46.379 E1.63678
G1 X12.282 Y46.068 E1.64168
G1 X12.593 Y45.812 E1.64658
G1 X12.947 Y45.622 E1.65145
G1 X13.288 Y45.519 E1.65578
G1 E0.15578 F18000.00000
G92 E0
G1 X13.729 Y-85.455 F4200.000
G1 E1.50000 F18000.00000
G1 F1200.000
G1 X13.331 Y-85.494 E1.50486
G1 X12.947 Y-85.610 E1.50974
G1 X12.594 Y-85.799 E1.51460
G1 X12.282 Y-86.049 E1.51945
G1 X12.025 Y-86.361 E1.52436
G1 X11.836 Y-86.719 E1.52928
G1 X11.720 Y-87.106 E1.53418
G1 X11.680 Y-87.503 E1.53903
G1 X11.720 Y-87.902 E1.54391
G1 X11.836 Y-88.289 E1.54881
G1 X12.026 Y-88.641 E1.55366
G1 X12.282 Y-88.952 E1.55856
G1 X12.593 Y-89.208 E1.56346
G1 X12.948 Y-89.398 E1.56834
G1 X13.390 Y-89.519 E1.57392
G1 X13.731 Y-89.554 E1.57808
G1 X14.131 Y-89.514 E1.58295
G1 X14.515 Y-89.398 E1.58783
G1 X14.873 Y-89.209 E1.59275
G1 X15.185 Y-88.952 E1.59765
G1 X15.435 Y-88.641 E1.60250
G1 X15.623 Y-88.290 E1.60734
G1 X15.746 Y-87.903 E1.61228
G1 X15.779 Y-87.503 E1.61715
G1 X15.746 Y-87.106 E1.62199
G1 X15.624 Y-86.718 E1.62692
G1 X15.435 Y-86.362 E1.63182
G1 X15.184 Y-86.050 E1.63668
G1 X14.872 Y-85.799 E1.64155
G1 X14.515 Y-85.610 E1.64645
G1 X14.071 Y-85.477 E1.65208
G1 X13.774 Y-85.458 E1.65570
G1 E0.15570 F18000.00000
G92 E0
G1 X16.649 Y-80.901 F4200.000
G1 E1.50000 F18000.00000
G1 F1200.000
G1 X16.011 Y-80.492 E1.50920
G1 X14.241 Y-78.784 E1.53908
G1 X13.508 Y-77.794 E1.55404
G1 X4.054 Y-61.157 E1.78648
G1 X3.545 Y-59.404 E1.80865
G1 X3.404 Y-58.342 E1.82167
G1 X3.418 Y18.059 E2.74970
G1 X3.521 Y19.179 E2.76337
G1 X3.998 Y21.008 E2.78632
G1 X4.350 Y21.876 E2.79771
G1 X13.238 Y37.346 E3.01443
G1 X14.145 Y38.641 E3.03362
G1 X14.678 Y39.254 E3.04350
G1 X15.882 Y40.359 E3.06335
G1 X18.211 Y41.905 E3.09731
G1 X19.371 Y43.070 E3.11727
G1 X19.812 Y43.689 E3.12651
G1 X20.191 Y44.374 E3.13602
G1 X20.699 Y45.841 E3.15487
G1 X20.891 Y47.299 E3.17274
G1 X20.870 Y48.012 E3.18140
G1 X20.756 Y48.826 E3.19139
G1 X20.583 Y49.559 E3.20054
G1 X20.332 Y50.278 E3.20978
G1 X20.015 Y50.917 E3.21845
G1 X19.638 Y51.523 E3.22712
G1 X19.169 Y52.133 E3.23647
G1 X18.572 Y52.760 E3.24698
G1 X17.877 Y53.325 E3.25786
G1 X17.121 Y53.804 E3.26873
G1 X16.262 Y54.175 E3.28010
G1 X15.311 Y54.454 E3.29214
G1 X14.425 Y54.618 E3.30308
G1 X13.485 Y54.626 E3.31450
G1 X12.256 Y54.469 E3.32955
G1 X11.047 Y54.102 E3.34489
G1 X10.185 Y53.669 E3.35662
G1 X8.992 Y52.806 E3.37449
G1 X8.398 Y52.210 E3.38471
G1 X7.989 Y51.719 E3.39248
G1 X7.289 Y50.574 E3.40878
G1 X7.101 Y50.113 E3.41483
G1 X6.731 Y48.880 E3.43046
G1 X6.620 Y48.031 E3.44086
G1 X6.492 Y45.707 E3.46914
G1 X6.332 Y44.857 E3.47965
G1 X5.732 Y42.961 E3.50380
G1 X-4.534 Y25.008 E3.75502
G1 X-5.405 Y22.602 E3.78609
G1 X-5.681 Y21.348 E3.80169
G1 X-5.898 Y19.111 E3.82899
G1 X-5.835 Y-60.032 E4.79033
G1 X-5.422 Y-62.565 E4.82151
G1 X-4.607 Y-64.861 E4.85110
G1 X5.601 Y-82.737 E5.10116
G1 X6.119 Y-84.064 E5.11846
G1 X6.498 Y-85.657 E5.13834
G1 X6.678 Y-88.444 E5.17227
G1 X6.866 Y-89.451 E5.18471
G1 X7.278 Y-90.534 E5.19879
G1 X7.725 Y-91.360 E5.21020
G1 X8.366 Y-92.208 E5.22311
G1 X8.769 Y-92.634 E5.23024
G1 X9.748 Y-93.438 E5.24562
G1 X10.789 Y-94.025 E5.26014
G1 X11.462 Y-94.290 E5.26892
G1 X12.123 Y-94.466 E5.27722
G1 X13.268 Y-94.629 E5.29128
G1 X14.899 Y-94.568 E5.31110
G1 X16.178 Y-94.230 E5.32718
G1 X17.063 Y-93.828 E5.33898
G1 X17.788 Y-93.394 E5.34925
G1 X18.317 Y-93.011 E5.35718
G1 X19.395 Y-91.889 E5.37607
G1 X20.262 Y-90.413 E5.39688
